; HEADER_BLOCK_START
; generated by Creality_Print V5.1.4.10249 on 2024-09-15 at 23:13:58
; total layer number: 85
; filament_density: 1.24
; filament_diameter: 1.75
; max_z_height: 17.00
; HEADER_BLOCK_END

; MINX = 131.79
; MINY = 35.84
; MINZ = 0.00
; MAXX = 203.54
; MAXY = 106.58
; MAXZ = 16.93

; THUMBNAIL_BLOCK_START

;
; THUMBNAIL_BLOCK_END

; THUMBNAIL_BLOCK_START

;
; THUMBNAIL_BLOCK_END

; external perimeters extrusion width = 0.42mm
; perimeters extrusion width = 0.45mm
; infill extrusion width = 0.45mm
; solid infill extrusion width = 0.42mm
; top infill extrusion width = 0.42mm
; support material extrusion width = 0.42mm
; first layer extrusion width = 0.50mm

; EXECUTABLE_BLOCK_START
EXCLUDE_OBJECT_DEFINE NAME=Dual_Color_Tires.stl_id_0_copy_0 CENTER=167.666,71.2129 POLYGON=[[131.791,52.7748],[131.794,52.4619],[131.863,51.2125],[131.884,51.0049],[132.024,49.9715],[132.161,49.2543],[132.277,48.7459],[132.62,47.5423],[133.05,46.3673],[133.255,45.8876],[133.566,45.2272],[134.059,44.3084],[134.165,44.1284],[134.843,43.0768],[135.025,42.822],[135.597,42.0782],[136.14,41.4446],[136.423,41.138],[137.316,40.2613],[137.393,40.1913],[138.271,39.453],[138.771,39.0759],[139.284,38.7175],[140.257,38.1106],[140.348,38.0587],[141.457,37.4803],[141.836,37.3059],[142.607,36.9855],[143.491,36.6708],[143.79,36.5768],[144.999,36.2567],[145.203,36.212],[146.229,36.0267],[146.954,35.9348],[147.473,35.8883],[148.724,35.842],[186.58,36.0147],[187.83,36.0609],[188.35,36.1074],[189.074,36.1994],[190.1,36.3847],[190.304,36.4293],[191.514,36.7495],[191.812,36.8434],[192.697,37.1581],[193.467,37.4786],[193.846,37.6529],[194.956,38.2313],[195.046,38.2832],[196.02,38.8901],[196.533,39.2485],[197.032,39.6257],[197.91,40.3639],[197.987,40.434],[198.88,41.3106],[199.163,41.6172],[199.706,42.2508],[200.279,42.9946],[200.46,43.2494],[201.139,44.301],[201.244,44.4811],[201.737,45.3999],[202.049,46.0603],[202.253,46.5399],[202.684,47.7149],[203.026,48.9185],[203.143,49.4269],[203.279,50.1442],[203.42,51.1775],[203.44,51.3851],[203.51,52.6345],[203.513,52.9474],[203.541,89.651],[203.515,90.5892],[203.448,91.4209],[203.4,91.8353],[203.193,93.0694],[203.171,93.1715],[202.895,94.2849],[202.713,94.8835],[202.508,95.475],[202.077,96.5382],[202.035,96.6333],[201.477,97.7535],[201.273,98.1174],[200.838,98.8295],[200.307,99.6038],[200.121,99.8553],[199.331,100.825],[199.192,100.981],[198.471,101.734],[197.939,102.234],[197.546,102.577],[196.561,103.35],[195.522,104.048],[195.075,104.315],[194.435,104.667],[193.496,105.12],[193.305,105.204],[192.138,105.656],[191.841,105.755],[190.941,106.02],[190.129,106.214],[189.72,106.295],[188.482,106.48],[188.378,106.491],[187.234,106.572],[186.608,106.584],[148.752,106.411],[148.127,106.4],[146.982,106.318],[146.879,106.307],[145.641,106.123],[145.232,106.041],[144.42,105.848],[143.52,105.582],[143.223,105.483],[142.056,105.031],[141.865,104.947],[140.926,104.494],[140.286,104.143],[139.838,103.875],[138.799,103.177],[137.815,102.405],[137.422,102.062],[136.89,101.562],[136.169,100.809],[136.03,100.653],[135.24,99.6826],[135.053,99.4312],[134.523,98.6568],[134.088,97.9448],[133.884,97.5809],[133.326,96.4607],[133.283,96.3655],[132.852,95.3024],[132.648,94.7109],[132.466,94.1122],[132.189,92.9989],[132.168,92.8968],[131.961,91.6627],[131.912,91.2483],[131.845,90.4166],[131.819,89.4784],[131.791,52.7748]]
M73 P0 R43
M106 S0
M106 P2 S0
;TYPE:Custom
M140 S0
M104 S0 
START_PRINT EXTRUDER_TEMP=220 BED_TEMP=50
M141 S35;set chamber_temperature
G90
G21
M83 ; use relative distances for extrusion
; filament start gcode
M106 S0
;LAYER_CHANGE
;Z:0.2
;HEIGHT:0.2
;BEFORE_LAYER_CHANGE
;0.2
G92 E0

G1 E-.5 F2400
;AFTER_LAYER_CHANGE
;0.2
;_SET_FAN_SPEED_CHANGING_LAYER
SET_VELOCITY_LIMIT ACCEL=1000 ACCEL_TO_DECEL=1000
SET_VELOCITY_LIMIT SQUARE_CORNER_VELOCITY=20
; printing object Dual Color Tires.stl id:0 copy 0
EXCLUDE_OBJECT_START NAME=Dual_Color_Tires.stl_id_0_copy_0
G1 X149.85 Y43.499 F30000
G1 Z.4
G1 Z.2
G1 E.5 F2400
;TYPE:Support
;WIDTH:0.5
G1 F3000
G3 X148.724 Y43.431 I-1.126 J9.267 E2.07697
G1 X149.781 Y43.495 E.03826
G1 X157.509 Y55.24 F30000
G1 F3000
G1 X157.509 Y51.256 E.14386
G2 X157.001 Y49.444 I-9.74 J1.753 E.06804
G1 X157.001 Y56.106 E.24053
G3 X156.493 Y57.155 I-4.576 J-1.567 E.0422
G1 X156.493 Y48.394 E.31632
G2 X155.985 Y47.588 I-3.575 J1.688 E.0345
G1 X155.985 Y57.962 E.37456
G1 X155.477 Y58.61 E.02973
G1 X155.477 Y46.94 E.42137
G2 X154.969 Y46.413 I-2.423 J1.828 E.02648
G1 X154.969 Y59.137 E.45941
G3 X154.461 Y59.605 I-2.18 J-1.857 E.02499
G1 X154.461 Y45.945 E.4932
G1 X153.954 Y45.547 E.02329
G1 X153.954 Y60.003 E.52193
G3 X153.446 Y60.338 I-1.634 J-1.924 E.02202
G1 X153.446 Y45.212 E.54612
G1 X152.938 Y44.905 E.02143
G1 X152.938 Y60.645 E.56829
G3 X152.43 Y60.883 I-1.236 J-1.972 E.02031
G1 X152.43 Y44.667 E.58551
G1 X151.922 Y44.438 E.02011
G1 X151.922 Y61.112 E.60202
G3 X151.414 Y61.274 I-.924 J-2.01 E.0193
G1 X151.414 Y44.275 E.61376
G1 X150.906 Y44.117 E.01921
G1 X150.906 Y61.432 E.62519
G3 X150.399 Y61.531 I-.661 J-2.042 E.01873
G1 X150.399 Y44.018 E.63233
G1 X149.891 Y43.925 E.01864
G1 X149.891 Y61.624 E.63905
G3 X149.383 Y61.666 I-.426 J-2.07 E.01844
G1 X149.383 Y43.883 E.64207
G1 X148.875 Y43.853 E.01837
G1 X148.875 Y61.697 E.64429
G3 X148.367 Y61.685 I-.203 J-2.098 E.01839
G1 X148.367 Y43.865 E.64339
G1 X147.859 Y43.896 E.01837
G1 X147.859 Y61.654 E.64118
G3 X147.351 Y61.587 I.022 J-2.125 E.01854
G1 X147.351 Y43.963 E.63634
G1 X146.844 Y44.056 E.01864
G1 X146.844 Y61.494 E.62962
G3 X146.336 Y61.369 I.262 J-2.154 E.01893
G1 X146.336 Y44.181 E.62057
G1 X145.828 Y44.339 E.01921
G1 X145.828 Y61.21 E.60914
G3 X145.32 Y61.019 I.533 J-2.187 E.01964
G1 X145.32 Y44.53 E.59535
G1 X144.812 Y44.759 E.02011
G1 X144.812 Y60.791 E.57885
G3 X144.304 Y60.521 I.858 J-2.226 E.02082
G1 X144.304 Y45.029 E.55934
G1 X143.796 Y45.336 E.02143
G1 X143.796 Y60.214 E.53717
G3 X143.288 Y59.842 I1.277 J-2.277 E.02278
G1 X143.288 Y45.708 E.51033
G2 X142.781 Y46.11 I1.403 J2.293 E.02345
G1 X142.781 Y59.44 E.48128
G1 X142.273 Y58.932 E.02593
G1 X142.273 Y46.618 E.4446
G2 X141.765 Y47.201 I2.149 J2.383 E.028
G1 X141.765 Y58.348 E.40247
G3 X141.257 Y57.656 I2.596 J-2.437 E.03107
G1 X141.257 Y47.894 E.35249
G2 X140.749 Y48.771 I3.361 J2.53 E.0367
G1 X140.749 Y56.778 E.28911
G3 X140.241 Y55.52 I4.926 J-2.72 E.04911
G1 X140.241 Y49.398 E.22104
G1 E-.35 F2400
;WIPE_START
G1 F3000
G1 X140.241 Y50.398 E-.15
;WIPE_END
G1 X142.589 Y57.661 Z.6 F30000
G1 X149.878 Y80.203 Z.6
G1 Z.2
G1 E.5 F2400
G1 F3000
G3 X148.752 Y80.135 I-1.126 J9.267 E2.07697
G1 X149.81 Y80.199 E.03826
G1 X157.509 Y92.035 F30000
G1 F3000
G1 X157.509 Y87.803 E.15282
G2 X157.001 Y86.084 I-9.33 J1.822 E.06482
G1 X157.001 Y92.873 E.24512
G3 X156.493 Y93.906 I-4.509 J-1.575 E.04167
G1 X156.493 Y85.051 E.31974
G2 X155.985 Y84.255 I-3.531 J1.693 E.03417
G1 X155.985 Y94.702 E.3772
G1 X155.477 Y95.35 E.02973
G1 X155.477 Y83.607 E.42401
G2 X154.969 Y83.088 I-2.391 J1.832 E.02628
G1 X154.969 Y95.869 E.46148
G3 X154.461 Y96.331 I-2.155 J-1.86 E.02484
G1 X154.461 Y82.626 E.49482
G1 X153.954 Y82.228 E.02329
G1 X153.954 Y96.729 E.52355
G3 X153.446 Y97.058 I-1.612 J-1.927 E.02192
G1 X153.446 Y81.898 E.54737
G1 X152.938 Y81.591 E.02143
G1 X152.938 Y97.365 E.56954
G3 X152.43 Y97.599 I-1.217 J-1.974 E.02024
G1 X152.43 Y81.357 E.58644
G1 X151.922 Y81.129 E.02011
G1 X151.922 Y97.828 E.60295
G3 X151.414 Y97.987 I-.908 J-2.014 E.01926
G1 X151.414 Y80.97 E.6144
G1 X150.906 Y80.812 E.01921
G1 X150.906 Y98.145 E.62583
G3 X150.399 Y98.24 I-.646 J-2.043 E.0187
G1 X150.399 Y80.717 E.63271
G1 X149.891 Y80.623 E.01864
G1 X149.891 Y98.333 E.63943
G3 X149.383 Y98.372 I-.412 J-2.072 E.01843
G1 X149.383 Y80.585 E.6422
G1 X148.875 Y80.554 E.01837
G1 X148.875 Y98.402 E.64441
G3 X148.367 Y98.386 I-.189 J-2.099 E.01839
G1 X148.367 Y80.57 E.64327
G1 X147.859 Y80.601 E.01837
G1 X147.859 Y98.356 E.64105
G3 X147.351 Y98.285 I.037 J-2.127 E.01856
G1 X147.351 Y80.672 E.63596
G1 X146.843 Y80.765 E.01864
G1 X146.843 Y98.192 E.62924
G3 X146.336 Y98.063 I.277 J-2.156 E.01896
G1 X146.336 Y80.894 E.61993
G1 X145.828 Y81.052 E.01921
G1 X145.828 Y97.905 E.6085
G3 X145.32 Y97.71 I.549 J-2.189 E.01969
G1 X145.32 Y81.247 E.59442
G1 X144.812 Y81.475 E.02011
G1 X144.812 Y97.481 E.57792
G3 X144.304 Y97.207 I.876 J-2.228 E.0209
G1 X144.304 Y81.75 E.55809
G1 X143.796 Y82.057 E.02143
G1 X143.796 Y96.9 E.53592
G3 X143.288 Y96.523 I1.298 J-2.28 E.02289
G1 X143.288 Y82.434 E.50871
G2 X142.781 Y82.842 I1.428 J2.296 E.02359
G1 X142.781 Y96.115 E.47921
G1 X142.273 Y95.607 E.02593
G1 X142.273 Y83.35 E.44254
G2 X141.765 Y83.941 I2.182 J2.387 E.02821
G1 X141.765 Y95.015 E.39983
G3 X141.257 Y94.312 I2.641 J-2.443 E.03139
G1 X141.257 Y84.644 E.34907
G2 X140.749 Y85.538 I3.427 J2.538 E.03721
G1 X140.749 Y93.418 E.28452
M73 P1 R43
G3 X140.241 Y92.132 I5.043 J-2.734 E.05006
G1 X140.241 Y86.166 E.21542
G1 E-.35 F2400
;WIPE_START
G1 F3000
G1 X140.241 Y87.166 E-.15
;WIPE_END
G1 X147.797 Y86.085 Z.6 F30000
G1 X187.735 Y80.376 Z.6
G1 Z.2
G1 E.5 F2400
G1 F3000
G3 X188.844 Y98.723 I-1.147 J9.277 E.93644
G3 X187.666 Y80.371 I-2.223 J-9.071 E1.17821
G1 X195.091 Y93.027 F30000
G1 F3000
G1 X195.091 Y86.905 E.22104
G2 X194.583 Y85.647 I-5.435 J1.462 E.04911
G1 X194.583 Y93.655 E.28911
G3 X194.075 Y94.532 I-3.867 J-1.652 E.0367
G1 X194.075 Y84.77 E.35249
G2 X193.567 Y84.078 I-3.104 J1.745 E.03107
G1 X193.567 Y95.224 E.40247
G3 X193.059 Y95.808 I-2.656 J-1.799 E.028
G1 X193.059 Y83.494 E.44461
G1 X192.551 Y82.986 E.02593
G1 X192.551 Y96.316 E.48128
G3 X192.044 Y96.718 I-1.91 J-1.89 E.02345
G1 X192.044 Y82.584 E.51033
G2 X191.536 Y82.212 I-1.785 J1.906 E.02278
G1 X191.536 Y97.09 E.53717
G1 X191.028 Y97.397 E.02143
G1 X191.028 Y81.905 E.55934
G2 X190.52 Y81.635 I-1.366 J1.956 E.02082
G1 X190.52 Y97.667 E.57885
G1 X190.012 Y97.895 E.02011
G1 X190.012 Y81.406 E.59535
G2 X189.504 Y81.215 I-1.04 J1.996 E.01964
G1 X189.504 Y98.086 E.60914
G1 X188.996 Y98.245 E.01921
G1 X188.996 Y81.057 E.62057
G2 X188.489 Y80.932 I-.77 J2.029 E.01893
G1 X188.489 Y98.37 E.62962
G1 X187.981 Y98.463 E.01864
G1 X187.981 Y80.839 E.63634
G2 X187.473 Y80.772 I-.53 J2.058 E.01854
G1 X187.473 Y98.53 E.64118
G1 X186.965 Y98.561 E.01837
G1 X186.965 Y80.741 E.64339
G2 X186.457 Y80.729 I-.305 J2.085 E.01839
G1 X186.457 Y98.573 E.64429
G1 X185.949 Y98.542 E.01837
G1 X185.949 Y80.76 E.64207
G2 X185.441 Y80.801 I-.082 J2.112 E.01844
G1 X185.441 Y98.501 E.63905
G1 X184.933 Y98.408 E.01864
G1 X184.933 Y80.894 E.63233
G2 X184.426 Y80.993 I.153 J2.141 E.01873
G1 X184.426 Y98.309 E.62519
G1 X183.918 Y98.15 E.01921
G1 X183.918 Y81.152 E.61376
G2 X183.41 Y81.314 I.416 J2.173 E.0193
G1 X183.41 Y97.988 E.60202
G1 X182.902 Y97.759 E.02011
G1 X182.902 Y81.543 E.58551
G2 X182.394 Y81.781 I.728 J2.211 E.02031
G1 X182.394 Y97.521 E.56829
G1 X181.886 Y97.214 E.02143
G1 X181.886 Y82.088 E.54612
G2 X181.378 Y82.423 I1.126 J2.259 E.02202
G1 X181.378 Y96.879 E.52193
G1 X180.871 Y96.481 E.02329
G1 X180.871 Y82.821 E.4932
G2 X180.363 Y83.289 I1.673 J2.325 E.02499
G1 X180.363 Y96.013 E.45941
G3 X179.855 Y95.486 I1.915 J-2.355 E.02648
G1 X179.855 Y83.816 E.42137
G1 X179.347 Y84.464 E.02973
G1 X179.347 Y94.838 E.37456
G3 X178.839 Y94.031 I3.068 J-2.495 E.0345
G1 X178.839 Y85.271 E.31632
G2 X178.331 Y86.32 I4.068 J2.616 E.0422
G1 X178.331 Y92.982 E.24053
G3 X177.823 Y91.17 I9.233 J-3.565 E.06804
G1 X177.823 Y87.186 E.14386
G1 E-.35 F2400
;WIPE_START
G1 F3000
G1 X177.823 Y88.186 E-.15
;WIPE_END
G1 X179.478 Y80.735 Z.6 F30000
G1 X187.706 Y43.672 Z.6
G1 Z.2
G1 E.5 F2400
G1 F3000
G3 X186.58 Y43.604 I-1.126 J9.267 E2.07697
G1 X187.638 Y43.668 E.03826
G1 X195.091 Y56.26 F30000
G1 F3000
G1 X195.091 Y50.294 E.21542
G2 X194.583 Y49.007 I-5.551 J1.448 E.05006
G1 X194.583 Y56.887 E.28452
G3 X194.075 Y57.781 I-3.935 J-1.644 E.03721
G1 X194.075 Y48.113 E.34907
G2 X193.567 Y47.411 I-3.149 J1.74 E.03139
G1 X193.567 Y58.484 E.39983
G3 X193.059 Y59.076 I-2.689 J-1.796 E.02821
G1 X193.059 Y46.819 E.44254
G1 X192.551 Y46.311 E.02593
G1 X192.551 Y59.584 E.47921
G3 X192.044 Y59.992 I-1.936 J-1.887 E.02359
G1 X192.044 Y45.903 E.50871
G2 X191.536 Y45.526 I-1.806 J1.903 E.02289
G1 X191.536 Y60.369 E.53592
G1 X191.028 Y60.676 E.02143
G1 X191.028 Y45.219 E.55809
G2 X190.52 Y44.944 I-1.384 J1.954 E.0209
G1 X190.52 Y60.95 E.57792
G1 X190.012 Y61.179 E.02011
G1 X190.012 Y44.716 E.59442
G2 X189.504 Y44.521 I-1.057 J1.994 E.01969
G1 X189.504 Y61.374 E.6085
G1 X188.996 Y61.532 E.01921
G1 X188.996 Y44.363 E.61993
G2 X188.489 Y44.234 I-.785 J2.027 E.01896
G1 X188.489 Y61.661 E.62924
G1 X187.981 Y61.754 E.01864
G1 X187.981 Y44.141 E.63596
G2 X187.473 Y44.07 I-.544 J2.056 E.01856
G1 X187.473 Y61.825 E.64105
G1 X186.965 Y61.856 E.01837
G1 X186.965 Y44.039 E.64327
G2 X186.457 Y44.024 I-.319 J2.083 E.01839
G1 X186.457 Y61.871 E.64441
G1 X185.949 Y61.841 E.01837
G1 X185.949 Y44.054 E.6422
G2 X185.441 Y44.093 I-.096 J2.11 E.01843
G1 X185.441 Y61.802 E.63943
G1 X184.933 Y61.709 E.01864
G1 X184.933 Y44.186 E.63271
G2 X184.426 Y44.281 I.138 J2.139 E.0187
G1 X184.426 Y61.614 E.62583
G1 X183.918 Y61.456 E.01921
G1 X183.918 Y44.439 E.6144
G2 X183.41 Y44.598 I.399 J2.171 E.01926
G1 X183.41 Y61.297 E.60295
G1 X182.902 Y61.069 E.02011
G1 X182.902 Y44.826 E.58644
G2 X182.394 Y45.06 I.71 J2.208 E.02024
G1 X182.394 Y60.835 E.56954
G1 X181.886 Y60.528 E.02143
G1 X181.886 Y45.367 E.54737
G2 X181.378 Y45.697 I1.104 J2.256 E.02192
G1 X181.378 Y60.198 E.52355
G1 X180.871 Y59.8 E.02329
G1 X180.871 Y46.095 E.49482
G2 X180.363 Y46.557 I1.647 J2.322 E.02484
G1 X180.363 Y59.338 E.46148
G3 X179.855 Y58.819 I1.883 J-2.351 E.02628
G1 X179.855 Y47.076 E.42401
G1 X179.347 Y47.724 E.02973
G1 X179.347 Y58.171 E.3772
G3 X178.839 Y57.375 I3.023 J-2.489 E.03417
G1 X178.839 Y48.52 E.31974
G2 X178.331 Y49.553 I4.001 J2.608 E.04167
G1 X178.331 Y56.342 E.24512
M73 P2 R43
G3 X177.823 Y54.623 I8.821 J-3.541 E.06482
G1 X177.823 Y50.39 E.15282
G1 E-.35 F2400
;WIPE_START
G1 F3000
G1 X177.823 Y51.39 E-.15
;WIPE_END
G1 X170.727 Y48.58 Z.6 F30000
G1 X168.87 Y47.845 Z.6
G1 Z.2
G1 E.5 F2400
;TYPE:Brim
G1 F3000
G1 X169.067 Y47.154 E.02592
G1 X169.545 Y45.871 E.04943
G1 X170.11 Y44.639 E.04896
G1 X170.666 Y43.619 E.04193
G1 X171.514 Y42.304 E.05651
G1 X172.341 Y41.22 E.04922
G1 X173.108 Y40.347 E.04195
G1 X174.075 Y39.386 E.04922
G1 X175.27 Y38.375 E.05651
G1 X176.209 Y37.692 E.04193
G1 X177.365 Y36.968 E.04924
G1 X178.569 Y36.331 E.0492
G1 X180.007 Y35.712 E.05651
G1 X181.104 Y35.332 E.04193
G1 X182.421 Y34.976 E.04924
G1 X183.759 Y34.718 E.0492
G1 X185.316 Y34.545 E.05656
G1 X186.691 Y34.502 E.0497
G1 X188.038 Y34.559 E.04868
G1 X189.193 Y34.687 E.04195
G1 X190.535 Y34.93 E.04924
G1 X191.855 Y35.271 E.04922
G1 X193.146 Y35.709 E.04922
G1 X194.401 Y36.241 E.04922
G1 X195.614 Y36.865 E.04922
G1 X196.777 Y37.576 E.04922
G1 X197.884 Y38.371 E.04922
G1 X198.93 Y39.245 E.04922
G1 X199.908 Y40.195 E.04922
G1 X200.813 Y41.214 E.04922
G1 X201.641 Y42.297 E.04922
G1 X202.386 Y43.439 E.04922
G1 X203.046 Y44.632 E.04922
G1 X203.615 Y45.871 E.04922
G1 X204.093 Y47.156 E.04953
G1 X204.519 Y48.652 E.05616
G1 X204.787 Y49.989 E.04922
G1 X204.937 Y51.14 E.04193
G1 X205.025 Y52.704 E.05653
G1 X205.003 Y53.865 E.04193
G1 X204.885 Y55.223 E.04922
G1 X204.625 Y56.773 E.05677
G1 X204.295 Y58.088 E.04894
G1 X203.937 Y59.193 E.04193
G1 X203.344 Y60.643 E.05656
G1 X202.727 Y61.865 E.04943
G1 X202.029 Y63.027 E.04896
G1 X201.364 Y63.979 E.04193
G1 X200.374 Y65.194 E.05658
G1 X199.57 Y66.043 E.04221
G1 X198.575 Y66.961 E.04889
G1 X197.344 Y67.928 E.05651
G1 X196.38 Y68.575 E.04193
G1 X195.199 Y69.256 E.04922
G1 X193.785 Y69.928 E.05651
G1 X192.702 Y70.348 E.04193
G1 X191.4 Y70.753 E.04923
G1 X189.977 Y71.078 E.0527
G1 X189.851 Y71.157 E.00538
G1 X189.8 Y71.297 E.00538
G1 X189.846 Y71.439 E.00538
G1 X189.984 Y71.525 E.00588
G1 X190.76 Y71.678 E.02856
G1 X191.892 Y71.978 E.04225
G1 X193.174 Y72.413 E.04889
G1 X194.611 Y73.031 E.05649
G1 X195.816 Y73.667 E.0492
G1 X196.972 Y74.391 E.04922
G1 X198.071 Y75.198 E.04924
G1 X198.958 Y75.948 E.04195
G1 X199.937 Y76.898 E.04925
G1 X200.842 Y77.917 E.0492
